X: 1315
T: Bullshit Bill
C:Mick Murphy
B: australian traditional tunes wiki
M:4/4
L:1/8
R: Schottische
Q: 1/4=100
K:G
V:1 
D>D|:"G"G>F G>A B<A B>c|d>e d<B "Em"A<G B,>E|"D7"A>G A>B c>B c>d|"D"e2"G"d2z2"D"e>f|
"G"g>f g<a g>f e>d|"Em"g>G G>A G<F- FE/D/|1"G"G>g g<g e<d B>G|"D"A4d2D>D:|2"G"G>g g<g e<d g>b|"D"a4"G"g2||
% abcbook-tune_id 6342d53a2a0d11301f5f31aa


% abcbook-boost 0
% abcbook-tablature 
% abcbook-transpose 
% abcbook-lastupdated 1665324358683
% abcbook-soundfonts 
% abcbook-repeats 1
% NFF Book 2009

